src/assets/duotone/Dislike.svg

<svg width="24" height="24" viewBox="0 0 24 24"  xmlns="http://www.w3.org/2000/svg">
<path opacity="0.4" d="M2.35002 13.9603C2.74002 14.5203 3.43002 14.8403 4.22002 14.8403H8.32002C8.59002 14.8403 8.84002 14.9503 9.01002 15.1503C9.19002 15.3503 9.26002 15.6303 9.22002 15.9203L8.71002 19.2003C8.49002 20.1803 9.14002 21.2803 10.12 21.6103C11.03 21.9503 12.1 21.4903 12.53 20.8403L16.74 14.5703L16.86 14.3703V5.53027L16.71 5.38027L13.54 2.93027C13.12 2.51027 12.17 2.28027 11.5 2.28027H7.60002C6.26002 2.28027 4.91002 3.29027 4.61002 4.52027L2.15002 12.0103C1.90002 12.7203 1.97002 13.4203 2.35002 13.9603Z" />
<path d="M18.7899 17.6104H19.8199C21.3699 17.6104 21.9999 17.0104 21.9999 15.5304V5.48039C21.9999 4.00039 21.3699 3.40039 19.8199 3.40039H18.7899C17.2399 3.40039 16.6099 4.00039 16.6099 5.48039V15.5404C16.6099 17.0104 17.2399 17.6104 18.7899 17.6104Z" />
</svg>

<?xml version="1.0" encoding="UTF-8"?>
<svg width="24" height="24" viewBox="0 0 24 24" xmlns="http://www.w3.org/2000/svg">
 <path d="m2.35 13.96c0.39 0.56 1.08 0.88 1.87 0.88h4.1c0.27 0 0.52 0.11 0.69 0.31 0.18 0.2 0.25 0.48 0.21 0.77l-0.51 3.28c-0.22 0.98 0.43 2.08 1.41 2.41 0.91 0.34 1.98-0.12 2.41-0.77l4.21-6.27 0.12-0.2v-8.84l-0.15-0.15-3.17-2.45c-0.42-0.42-1.37-0.65-2.04-0.65h-3.9c-1.34 0-2.69 1.01-2.99 2.24l-2.46 7.49c-0.25 0.71-0.18 1.41 0.2 1.95z" opacity=".4"/>
 <path d="m18.79 17.61h1.03c1.55 0 2.18-0.6 2.18-2.08v-10.05c0-1.48-0.63-2.08-2.18-2.08h-1.03c-1.55 0-2.18 0.6-2.18 2.08v10.06c0 1.47 0.63 2.07 2.18 2.07z"/>
</svg>
